packages/assets/static/images/icons/mosquito.svg

<svg width="24" height="24" viewBox="0 0 24 24" xmlns="http://www.w3.org/2000/svg">
<path d="M21.8358 13.5762L20.0771 13.3699L18.668 11.674C18.5077 11.4809 18.2602 11.3806 18.0108 11.4078L15.0296 11.7274C14.9592 11.7349 14.8927 11.7528 14.8299 11.7781L13.9936 10.9399C13.8286 10.774 13.6411 10.6409 13.4386 10.5378C13.9992 10.6212 14.6536 10.6831 15.3624 10.6831C17.0686 10.6831 19.0871 10.3249 20.8458 9.04431C22.6167 7.75525 22.9458 6.22431 22.9102 5.16588C22.883 4.34181 22.3964 3.59088 21.6408 3.2065C20.9011 2.83056 20.0677 2.87181 19.4105 3.31713L11.7474 8.51744C11.7558 8.48838 11.7633 8.45838 11.768 8.42744L12.3464 4.84713C12.3858 4.6015 12.3014 4.35213 12.1205 4.1815L10.7264 2.86713L10.7949 1.85275C10.823 1.43931 10.5099 1.08213 10.0964 1.054C9.68205 1.02588 9.3258 1.339 9.29768 1.75244L9.2058 3.12025C9.1908 3.34431 9.27612 3.56275 9.44018 3.7165L10.8024 5.00088L10.3861 7.57713C10.1171 7.459 9.82362 7.39525 9.5208 7.39525C9.15424 7.39525 8.80268 7.48713 8.48955 7.65775C8.46518 7.50775 8.3958 7.36338 8.28049 7.24713L4.90643 3.87306C4.61393 3.58056 4.13862 3.58056 3.84612 3.87306C3.55362 4.16556 3.55362 4.64088 3.84612 4.93338L7.22018 8.30744C7.33643 8.42369 7.48174 8.49306 7.63268 8.51744C7.32143 9.08838 7.28674 9.76994 7.52955 10.3653L5.0358 10.7684L3.75143 9.40619C3.59768 9.24306 3.3783 9.15681 3.15518 9.17275L1.78737 9.26463C1.37393 9.29275 1.06174 9.64994 1.08893 10.0634C1.11612 10.4768 1.4733 10.7899 1.88768 10.7618L2.90205 10.6934L4.21643 12.0874C4.35893 12.2393 4.55768 12.3228 4.76205 12.3228C4.80143 12.3228 4.84174 12.3199 4.88205 12.3134L8.46237 11.7349C8.48393 11.7312 8.50455 11.7265 8.52518 11.7218L3.28455 19.444C2.83924 20.1003 2.79799 20.9346 3.17393 21.6743C3.5583 22.4299 4.30924 22.9165 5.1333 22.9437C5.18112 22.9456 5.22987 22.9465 5.28049 22.9465C6.32955 22.9465 7.78174 22.5696 9.01174 20.8793C10.8427 18.364 10.7874 15.3218 10.4967 13.4159C10.5999 13.6334 10.7396 13.8387 10.9186 14.0178L11.783 14.8849C11.7736 14.9215 11.7661 14.9581 11.7614 14.9965L11.4417 17.9778C11.4146 18.2271 11.5149 18.4737 11.708 18.6349L13.4039 20.044L13.6102 21.8028C13.6552 22.1843 13.9786 22.4656 14.3546 22.4656C14.3836 22.4656 14.4127 22.4637 14.4427 22.4599C14.8542 22.4121 15.1486 22.039 15.0999 21.6274L14.8589 19.5706C14.8364 19.3793 14.7417 19.204 14.5936 19.0812L12.9764 17.7378L13.1367 16.2415L15.0192 18.1296C15.4299 18.5412 15.9755 18.7681 16.5567 18.7681C17.138 18.7681 17.6836 18.5412 18.0942 18.1296C18.9408 17.2812 18.9408 15.9012 18.0942 15.0528L16.1621 13.1159L17.7699 12.9434L19.1133 14.5606C19.2361 14.7087 19.4114 14.8034 19.6027 14.8259L21.6596 15.0668C21.6896 15.0706 21.7186 15.0724 21.7477 15.0724C22.1227 15.0724 22.4471 14.7912 22.4921 14.4096C22.5399 13.9981 22.2455 13.6259 21.8349 13.5771L21.8358 13.5762ZM20.2542 4.55744C20.5467 4.35869 20.8702 4.49556 20.9621 4.54244C21.2349 4.68119 21.4027 4.93244 21.4121 5.21463C21.4458 6.22619 20.9583 7.10557 19.9636 7.83025C17.8983 9.33307 15.2939 9.28619 13.643 9.04338L20.2533 4.55744H20.2542ZM9.05955 9.08556C9.1833 8.96181 9.34737 8.89431 9.52174 8.89431C9.69612 8.89431 9.86018 8.96275 9.98393 9.08556L10.6683 9.76994C10.7921 9.89369 10.8596 10.0578 10.8596 10.2321C10.8596 10.4065 10.7921 10.5706 10.6683 10.6943C10.4133 10.9493 9.99893 10.9493 9.74393 10.6943L9.05955 10.0099C8.80455 9.75494 8.80455 9.34056 9.05955 9.08556ZM7.79955 19.9943C7.0758 20.989 6.19455 21.4765 5.18393 21.4428C4.90174 21.4334 4.65049 21.2646 4.51174 20.9928C4.46487 20.9009 4.32799 20.5784 4.52674 20.2849L9.01268 13.6746C9.25549 15.3256 9.30237 17.9299 7.79955 19.9953V19.9943ZM17.033 17.0684C16.9055 17.1959 16.7367 17.2662 16.5577 17.2662C16.3786 17.2662 16.2099 17.1959 16.0824 17.0684L11.9808 12.9565C11.7174 12.6921 11.7174 12.2628 11.9808 11.9993C12.1083 11.8718 12.2771 11.8015 12.4561 11.8015C12.6352 11.8015 12.8049 11.8718 12.9314 11.9993L17.033 16.1112C17.2964 16.3756 17.2964 16.8049 17.033 17.0684Z"/>
</svg>

<svg viewBox="0 0 24 24" xmlns="http://www.w3.org/2000/svg" aria-hidden="true" fill="currentColor" height="24px" width="24px"><path d="m21.836 13.576-1.759-.206-1.409-1.696a.75.75 0 0 0-.657-.266l-2.981.32a.7.7 0 0 0-.2.05l-.836-.838a2.2 2.2 0 0 0-.555-.402c.56.083 1.215.145 1.923.145 1.707 0 3.725-.358 5.484-1.639 1.77-1.289 2.1-2.82 2.064-3.878a2.3 2.3 0 0 0-1.27-1.96c-.739-.375-1.572-.334-2.23.111l-7.663 5.2a1 1 0 0 0 .021-.09l.578-3.58a.75.75 0 0 0-.226-.666l-1.394-1.314.069-1.014a.75.75 0 1 0-1.497-.1L9.206 3.12a.75.75 0 0 0 .234.596l1.362 1.285-.416 2.576a2.15 2.15 0 0 0-1.896.08.75.75 0 0 0-.21-.41L4.906 3.873a.75.75 0 0 0-1.06 1.06L7.22 8.307a.75.75 0 0 0 .413.21 2.16 2.16 0 0 0-.103 1.848l-2.494.403L3.75 9.406a.75.75 0 0 0-.596-.233l-1.368.092a.75.75 0 0 0 .1 1.497l1.015-.069 1.314 1.394a.75.75 0 0 0 .666.226l3.58-.578.063-.013-5.24 7.722c-.446.656-.487 1.49-.111 2.23a2.3 2.3 0 0 0 2.106 1.273c1.05 0 2.502-.377 3.732-2.068 1.83-2.515 1.775-5.557 1.485-7.463.103.217.243.423.422.602l.864.867a1 1 0 0 0-.022.111l-.32 2.982a.75.75 0 0 0 .267.657l1.696 1.409.206 1.759a.75.75 0 1 0 1.49-.176l-.241-2.056a.75.75 0 0 0-.265-.49l-1.618-1.343.16-1.497 1.883 1.889c.41.411.957.638 1.538.638s1.127-.227 1.537-.638a2.18 2.18 0 0 0 0-3.077l-1.932-1.937 1.608-.173 1.343 1.618a.75.75 0 0 0 .49.265l2.057.24q.045.007.088.006a.751.751 0 0 0 .087-1.495m-1.582-9.019c.293-.198.616-.061.708-.015.273.14.44.39.45.673.034 1.011-.454 1.89-1.448 2.615-2.066 1.503-4.67 1.456-6.321 1.213zM9.06 9.086a.653.653 0 0 1 .924 0l.684.684a.65.65 0 0 1 .192.462.654.654 0 0 1-1.116.462l-.684-.684a.654.654 0 0 1 0-.924M7.8 19.994c-.724.995-1.605 1.483-2.616 1.449a.79.79 0 0 1-.672-.45c-.047-.092-.184-.415.015-.708l4.486-6.61c.242 1.65.29 4.255-1.213 6.32m9.233-2.926a.67.67 0 0 1-.95 0l-4.102-4.112a.679.679 0 0 1 .475-1.154c.18 0 .349.07.475.197l4.102 4.112a.68.68 0 0 1 0 .957"/></svg>
